src/assets/icons/item-flags/reserved.svg

<svg width="24" height="24" viewBox="0 0 24 24" fill="none" xmlns="http://www.w3.org/2000/svg">
<path fill-rule="evenodd" clip-rule="evenodd" d="M18.9817 3.07474C18.5014 2.6565 17.8668 2.45638 17.2308 2.52151C14.9228 2.75913 13.2207 2.89027 12.3542 2.89027C11.4335 2.89027 9.59362 2.75487 7.09837 2.51066C6.46515 2.44969 5.83474 2.65211 5.35543 3.07065C4.87655 3.48863 4.59068 4.08498 4.5658 4.71942L4.00177 18.965C3.96718 19.8507 4.44079 20.6776 5.22197 21.0938C6.0029 21.5112 6.95335 21.445 7.66874 20.9234L11.9766 17.7863C12.11 17.6884 12.2868 17.6747 12.4461 17.7492L12.904 18.0664L16.6484 20.863C17.3616 21.3965 18.3176 21.4717 19.1052 21.0565C19.8938 20.6414 20.3733 19.811 20.3373 18.9208L19.7757 4.7288C19.7508 4.09157 19.4633 3.49263 18.9817 3.07474ZM17.774 4.46455C17.8722 4.54937 17.9302 4.67072 17.9351 4.80039L18.498 18.9943C18.505 19.1749 18.4077 19.3435 18.2484 19.4273C18.0885 19.5115 17.894 19.4964 17.7499 19.3884L11.5432 14.9084C11.1167 14.6164 10.5423 14.7248 10.2565 15.1452C9.96988 15.5641 10.078 16.1367 10.4977 16.4239L10.612 16.502L6.58439 19.4357C6.43989 19.5412 6.24696 19.5545 6.08914 19.47C5.93015 19.3852 5.83407 19.2175 5.84108 19.0382L6.40511 4.79265C6.41001 4.66385 6.468 4.54303 6.56638 4.45731C6.66377 4.37253 6.79192 4.33131 6.918 4.34378C9.49628 4.59532 11.3572 4.73128 12.3542 4.73128C13.3042 4.73128 15.0454 4.59783 17.4202 4.35194C17.5478 4.33876 17.6766 4.37978 17.774 4.46455Z" fill="#385EF9"/>
</svg>

<svg width="24" height="24" fill="none" xmlns="http://www.w3.org/2000/svg"><path fill-rule="evenodd" clip-rule="evenodd" d="M18.982 3.075a2.308 2.308 0 00-1.751-.553c-2.308.237-4.01.368-4.877.368-.92 0-2.76-.135-5.256-.38a2.313 2.313 0 00-2.532 2.21l-.564 14.245a2.309 2.309 0 003.667 1.958l4.308-3.137a.458.458 0 01.47-.037l.457.317 3.744 2.797a2.308 2.308 0 003.689-1.942l-.561-14.192a2.31 2.31 0 00-.794-1.654zm-1.208 1.39a.466.466 0 01.161.335l.563 14.194a.469.469 0 01-.748.394l-6.207-4.48a.92.92 0 10-1.046 1.515l.115.079-4.028 2.934a.467.467 0 01-.743-.398l.564-14.245a.468.468 0 01.513-.45c2.578.252 4.44.388 5.436.388.95 0 2.691-.133 5.066-.38a.468.468 0 01.354.114z" fill="#385EF9"/></svg>
